src/img/nina brilevicH.svg

<svg width="150" height="57" viewBox="0 0 150 57" fill="none" xmlns="http://www.w3.org/2000/svg">
<path d="M0 20.567V0H4.84793L13.8093 16.3067H14.1031L13.8093 13.8093V0H17.1881V20.567H12.3402L3.37886 4.2603H3.08505L3.37886 6.75772V20.567H0Z" fill="white"/>
<path d="M21.29 20.567V0H24.6689V20.567H21.29Z" fill="white"/>
<path d="M28.7788 20.567V0H33.6268L42.5881 16.3067H42.8819L42.5881 13.8093V0H45.9669V20.567H41.119L32.1577 4.2603H31.8639L32.1577 6.75772V20.567H28.7788Z" fill="white"/>
<path d="M48.4529 20.567L53.7415 0H62.1152L67.5508 20.567H64.025L62.6147 15.2783H53.1539L51.8317 20.567H48.4529ZM54.0354 12.0464H61.792L59.4709 3.23195H56.239L54.0354 12.0464Z" fill="white"/>
<path d="M0 56.2444V35.6774H10.1366C12.0758 35.6774 13.6134 36.1867 14.7495 37.2052C15.8855 38.2042 16.4536 39.4578 16.4536 40.966C16.4536 42.4743 15.9345 43.63 14.8964 44.4331C14.4654 44.766 13.9562 45.0305 13.3685 45.2264V45.3733C14.0933 45.53 14.7299 45.7944 15.2783 46.1666C16.5515 47.0872 17.1881 48.4877 17.1881 50.3681C17.1881 52.1114 16.5613 53.5315 15.3077 54.6284C14.0541 55.7057 12.2814 56.2444 9.98967 56.2444H0ZM3.37886 44.0511H9.98967C10.9299 44.0511 11.6546 43.816 12.1639 43.3459C12.6732 42.8758 12.9278 42.2197 12.9278 41.3774C12.9278 40.6331 12.6732 40.0356 12.1639 39.5851C11.6546 39.1346 10.9299 38.9094 9.98967 38.9094H3.37886V44.0511ZM3.37886 53.0124H9.84277C12.3892 53.0124 13.6623 52.033 13.6623 50.0743C13.6623 48.1155 12.3892 47.1361 9.84277 47.1361H3.37886V53.0124Z" fill="white"/>
<path d="M20.7162 56.2444V35.6774H29.6775C32.1064 35.6774 34.0357 36.3042 35.4656 37.5578C36.8955 38.8114 37.6105 40.3882 37.6105 42.2882C37.6105 43.7965 37.1404 45.1284 36.2002 46.2841C35.2795 47.4202 33.9868 48.1939 32.3218 48.6052L37.4636 56.2444H33.4971L28.6491 48.899H24.095V56.2444H20.7162ZM24.095 45.6671H29.6775C32.6156 45.6671 34.0847 44.5408 34.0847 42.2882C34.0847 40.0356 32.6156 38.9094 29.6775 38.9094H24.095V45.6671Z" fill="white"/>
<path d="M41.002 56.2444V35.6774H44.3808V56.2444H41.002Z" fill="white"/>
<path d="M48.4908 56.2444V35.6774H51.8696V53.0124H62.3V56.2444H48.4908Z" fill="white"/>
<path d="M64.3579 56.2444V35.6774H79.1955V38.9094H67.7367V44.198H76.9919V47.43H67.7367V53.0124H79.1955V56.2444H64.3579Z" fill="white"/>
<path d="M80.6749 35.6774H84.2006L88.6078 53.0124H91.8398L96.1001 35.6774H99.479L94.3372 56.2444H85.9635L80.6749 35.6774Z" fill="white"/>
<path d="M101.974 56.2444V35.6774H105.353V56.2444H101.974Z" fill="white"/>
<path d="M111.755 53.747C109.639 51.6903 108.581 49.0949 108.581 45.9609C108.581 42.8269 109.639 40.2315 111.755 38.1748C113.87 36.1181 116.485 35.0898 119.599 35.0898C123.164 35.0898 125.946 36.3434 127.944 38.8506C128.825 39.9279 129.472 41.1717 129.883 42.582H126.504C126.152 41.7985 125.662 41.0934 125.035 40.4666C123.605 39.0367 121.793 38.3217 119.599 38.3217C117.386 38.3217 115.584 39.0269 114.193 40.4372C112.803 41.8475 112.107 43.6887 112.107 45.9609C112.107 48.233 112.803 50.0743 114.193 51.4846C115.584 52.8949 117.386 53.6 119.599 53.6C121.852 53.6 123.703 52.8165 125.153 51.2495C125.799 50.5836 126.298 49.8001 126.651 48.899H130.03C129.521 50.4269 128.806 51.749 127.885 52.8655C125.848 55.5098 123.086 56.832 119.599 56.832C116.485 56.832 113.87 55.8036 111.755 53.747Z" fill="white"/>
<path d="M133.106 56.2444V35.6774H136.485V44.198H146.621V35.6774H150V56.2444H146.621V47.43H136.485V56.2444H133.106Z" fill="white"/>
</svg>

<svg width="150" height="57" fill="none" xmlns="http://www.w3.org/2000/svg"><path d="M0 20.57V0h4.85l8.96 16.3h.3l-.3-2.5V0h3.38v20.57h-4.85L3.38 4.26h-.3l.3 2.5v13.8H0ZM21.29 20.57V0h3.38v20.57h-3.38ZM28.78 20.57V0h4.85l8.96 16.3h.3l-.3-2.5V0h3.38v20.57h-4.85L32.16 4.26h-.3l.3 2.5v13.8h-3.38ZM48.45 20.57 53.75 0h8.37l5.43 20.57h-3.52l-1.42-5.3h-9.46l-1.32 5.3h-3.38Zm5.59-8.52h7.75l-2.32-8.82h-3.23l-2.2 8.82ZM0 56.24V35.68h10.14c1.94 0 3.47.5 4.6 1.53a4.8 4.8 0 0 1 1.71 3.76c0 1.5-.52 2.66-1.55 3.46-.43.34-.94.6-1.53.8v.14a5.4 5.4 0 0 1 1.9.8c1.28.92 1.92 2.32 1.92 4.2a5.4 5.4 0 0 1-1.88 4.26c-1.26 1.08-3.03 1.61-5.32 1.61H0Zm3.38-12.19h6.61c.94 0 1.66-.23 2.17-.7s.77-1.13.77-1.97c0-.75-.26-1.34-.77-1.8a3.18 3.18 0 0 0-2.17-.67H3.38v5.14Zm0 8.96h6.46c2.55 0 3.82-.98 3.82-2.94 0-1.95-1.27-2.93-3.82-2.93H3.38V53ZM20.72 56.24V35.68h8.96c2.43 0 4.36.62 5.79 1.88a6.02 6.02 0 0 1 2.14 4.73c0 1.5-.47 2.84-1.41 4a6.96 6.96 0 0 1-3.88 2.32l5.14 7.63H33.5l-4.85-7.34H24.1v7.34h-3.38Zm3.38-10.57h5.58c2.94 0 4.4-1.13 4.4-3.38s-1.46-3.38-4.4-3.38h-5.59v6.76ZM41 56.24V35.68h3.38v20.56H41ZM48.5 56.24V35.68h3.37V53H62.3v3.23H48.5ZM64.36 56.24V35.68H79.2v3.23H67.74v5.29h9.25v3.23h-9.25v5.58H79.2v3.23H64.36ZM80.67 35.68h3.53L88.6 53h3.24l4.26-17.33h3.38l-5.14 20.56h-8.38l-5.29-20.56ZM101.97 56.24V35.68h3.38v20.56h-3.38ZM111.75 53.75a10.4 10.4 0 0 1-3.17-7.79 10.4 10.4 0 0 1 3.17-7.79 10.81 10.81 0 0 1 7.85-3.08c3.56 0 6.35 1.25 8.34 3.76a10.44 10.44 0 0 1 1.94 3.73h-3.38a7.37 7.37 0 0 0-6.9-4.26c-2.21 0-4.02.7-5.4 2.12a7.53 7.53 0 0 0-2.1 5.52c0 2.27.7 4.11 2.1 5.52a7.26 7.26 0 0 0 5.4 2.12c2.25 0 4.1-.78 5.55-2.35a7 7 0 0 0 1.5-2.35h3.38a12.24 12.24 0 0 1-2.14 3.97 9.9 9.9 0 0 1-8.3 3.96c-3.1 0-5.72-1.03-7.84-3.08ZM133.1 56.24V35.68h3.39v8.52h10.13v-8.52H150v20.56h-3.38v-8.81H136.5v8.81h-3.38Z" fill="#fff"/></svg>
